!!!!SEGMENT: pl-kk--kk-i-389--005-002_anonim--missa-no-5-kyrie.krn
!!!cenid: 17xx:2485
!!!COM: Anonim
!!!COM-rismID: pe30004985
!!!CDT:
!!!CNT:
!!!OPR: [Missa] No. 5.
!!!OTL: Kyrie
!!!OMV: 002
!!!PDT:
!!!AGN: Sacred; Mass
!!!YEC: Copyright 2022 Narodowy Instytut Fryderyka Chopina (https://polishscores.org)
!!!YEM: License CC-BY-4.0 (https://creativecommons.org/licenses/by/4.0)
!!!SMS-siglum: PL-Kk
!!!SMS-shelfmark: Kk.I.389
!!!SMS-variant:
!!!SMS-altvar:
!!!SMS-shelfwork: 005-002 M
!!!NIFC-rismSourceID: 1001146182
!!!NIFC-rismChildID: 1001146646
!!!NIFC-islandoraID: pl-kk:6976
!!!URL-pdf-islandora: https://repozytorium.nifc.pl/islandora/object/pl-kk%3A6976/datastream/PDF/view
!!!URL-scan: https://polish.musicsources.pl/pl/lokalizacje/galeria/rekopisy/5999/1 @EN{Scan on Polish Music Sources Website} @PL{Skany w portalu Dziedzictwo Muzyki Polskiej w otwartym dostępie}
!!!IIIF:
!!!ONB-nifc: UWAGA: S – skan 9-10, A – 28-29 , T – 47-48 , B – 66-67 . Części Mszy: Rorate, Kyrie, Gloria, Graduale, Sanctus, Benedictus, Agnus.
!!!AIN: 1 alto 1 bass 1 soprn 1 tenor
!!!key: C
**kern	**text	**kern	**text	**kern	**text	**kern	**text
*part4	*part4	*part3	*part3	*part2	*part2	*part1	*part1
*staff4	*staff4	*staff3	*staff3	*staff2	*staff2	*staff1	*staff1
*I"Basso.	*	*I"Tenore.	*	*I"Alto.	*	*I"Soprano.	*
*I'[B]	*	*I'[T]	*	*I'[A]	*	*I'[S]	*
*ICvox	*	*ICvox	*	*ICvox	*	*ICvox	*
*Ibass	*	*Itenor	*	*Ialto	*	*Isoprn	*
*clefF4	*	*clefC4	*	*clefC3	*	*clefC1	*
*k[]	*	*k[]	*	*k[]	*	*k[]	*
*C:	*	*C:	*	*C:	*	*C:	*
*M2/2	*	*M2/2	*	*M2/2	*	*M2/2	*
*met(C.|)	*	*met(C.|)	*	*met(C.|)	*	*met(C.|)	*
=1	=1	=1	=1	=1	=1	=1	=1
!!LO:TX:t=P:problem:all\right	!	!	!	!	!	!	!
4.C/	Ky-	4.c\	Ky-	4.g\	Ky-	4.ee\	Ky-
8D/	-ri-	8B\	-ri-	8f\	-ri-	8dd\	-ri-
4E\	-e	4G/	-e	4e\	-e	4cc\	-e
4F\	e-	4G/	e-	4f\	e-	4dd\	e-
=2	=2	=2	=2	=2	=2	=2	=2
4G\	-lei-	4G/	-lei-	4e\	-lei-	4cc\	-lei-
4GG/	-son	4G/	-son	4d\	-son	4b\	-son
*2\right	*	*2\right	*	*2\right	*	*	*
2G\	e-	2B\	e-	2f\	e-	4r	.
.	.	.	.	.	.	4dd\	e-
=3	=3	=3	=3	=3	=3	=3	=3
1G	-lei-	1B	-lei-	4f\	-le-	4dd\	-le-
.	.	.	.	8e\L	.	8cc\L	.
.	.	.	.	8f\J	.	8dd\J	.
.	.	.	.	4g\	.	4ee\	.
.	.	.	.	4f\	-i-	4dd\	-i-
=4	=4	=4	=4	=4	=4	=4	=4
*	*	*	*	*	*	*2\right	*
2C/	-son,	2G/	-son,	2e\	-son,	2cc\	-son,
4C/	Ky-	4c\	Ky-	4g\	Ky-	4ee\	Ky-
4E\	-ri-	4c\	-ri-	4e\	-ri-	4cc\	-ri-
=5	=5	=5	=5	=5	=5	=5	=5
4F\	-e	4c\	-e	4.c\	-e	4.a\	-e
8A\L	e-	4c\	e-	.	.	.	.
8B-X\J	.	.	.	8d\	e-	8b-X\	e-
4c\	-lei-	2c\	-lei-	4c/	-le-	4a\	-le-
4C/	.	.	.	4B-X/	i-	4g\	-i-
=6	=6	=6	=6	=6	=6	=6	=6
2F\	-son,	2c\	-son,	2A/	-son,	2f/	-son,
4D\	Ky-	4F#X/	Ky-	4a\	Ky-	4dd\	Ky-
4F#X\	-ri-	4A/	-ri-	4f#X\	-ri-	4dd\	-ri-
!	!	!	!	!	!	!LO:LB:g=original	!
=7	=7	=7	=7	=7	=7	=7	=7
4G\	-e	4d\	-e	4.d\	-e	4.bn\	-e
4Bn\	e-	4d\	e-	.	.	.	.
.	.	.	.	8e\	e-	8cc\	e-
!LO:LB:g=original	!	!	!	!LO:LB:g=original	!	!	!
4d\	-le-	2d\	-lei-	4d\	-le-	4b\	-le-
4D/	-i-	.	.	4c\	-i-	4a\	-i-
!	!	!LO:LB:g=original	!	!	!	!	!
=8	=8	=8	=8	=8	=8	=8	=8
2G\	-son,	2d\	-son	2Bn/	-son,	2g\	-son
4G\	Ky-	4B\	Ky-	4f\	Ky-	4dd\	Ky-
4G\	-ri-	4B\	-ri-	4d\	-ri-	4b\	-ri-
=9	=9	=9	=9	=9	=9	=9	=9
4c\	-e	2.G/	-e	4e\	-e	4cc\	-e
4G\	.	.	.	4f\	.	4dd\	.
4E\	.	.	.	4g\	.	4ee\	.
4BB/	e-	4A/	e-	8a\L	e-	8ff\L	e-
.	.	.	.	8f\J	.	8dd\J	.
=10	=10	=10	=10	=10	=10	=10	=10
4C\	-le-	1G	-lei-	2e\	-le-	2cc\	-le-
4E\	.	.	.	.	.	.	.
4G\	.	.	.	2d\	-i-	2b\	-i-
4GG/	-i-	.	.	.	.	.	.
=11	=11	=11	=11	=11	=11	=11	=11
2C/	-son,	2G/	-son,	2e\	-son,	2cc\	-son,
4G\	Ky-	4B/	Ky-	4f\	Ky-	4dd\	Ky-
4G\	-ri-	4G/	-ri-	4d\	-ri-	4b\	-ri-
=12	=12	=12	=12	=12	=12	=12	=12
4c\	-e	2.G/	-e	4e\	-e	4cc\	-e
4G\	.	.	.	4f\	.	4dd\	.
4E\	.	.	.	4g\	.	4ee\	.
4BB/	e-	4A/	e-	8a\L	e-	8ff\L	e-
.	.	.	.	8f\J	.	8dd\J	.
=13	=13	=13	=13	=13	=13	=13	=13
4C\	-le-	1G	-lei-	2e\	-le-	2cc\	-le-
4E\	.	.	.	.	.	.	.
4G\	.	.	.	2d\	-i-	2b\	-i-
4GG/	-i-	.	.	.	.	.	.
=14	=14	=14	=14	=14	=14	=14	=14
2C/	-son.	1G	-son.	1e	-son.	1cc	-son.
2r	.	.	.	.	.	.	.
==	==	==	==	==	==	==	==
*-	*-	*-	*-	*-	*-	*-	*-
!!!system-decoration: [(s1,s2,s3,s4)]
!!!ENC: Filip Voros
!!!END: 2023-11-07
!!!EED: Jan Barakat
!!!EEV: 2023-12-01
